X:1426
T:Der Morgenstern ist aufgegangen
C:anon.
O:Germany
N:16th century
Z:Transcribed by Frank Nordberg - http://www.musicaviva.com
F:http://abc.musicaviva.com/tunes/germany/der-morgenstern-ist.abc
M:C|
L:1/4
Q:1/2=72
K:G
d|dBGA|(B/c/ d2)B|c2B2|
w:Der Mor-gen-stern ist auf---ge-gan-gen,
z d d2|BA2G|cAd2|B2 z B|
w:er leucht da-her zu die-ser Stun-de hoch
B/B/B/c/ dd|(d c/B/A2|GF/E/D2)|z DGG|
w:\"u-ber Berg und tie-fe Tal,_______ vor Freud' singt
AA(B/c/d-|d)B(BA/G/|B2)A2|G3|]
w:uns die lie----be Nach----ti-gall.
W:
W:Der Morgenstern ist aufgegangen,
W:er leucht daher zu dieser Stunde
W:hoch \"uber Berg und tiefe Tal,
W:vor Freud' singt uns die liebe Nachtigall.
W:
W:
W:  From Musica Viva - http://www.musicaviva.com
W:  the Internet center for free sheet music downloads.


